src/4-icons/edit.svg

<svg width="260" height="260" viewBox="0 0 260 260" fill="none" xmlns="http://www.w3.org/2000/svg">
<path d="M240.109 19.8921C233.859 13.6773 227.039 8.7531 220.106 5.34155C213.173 1.96848 206.128 0 199.309 0C195.936 0 192.603 0.492858 189.459 1.62955C186.314 2.76624 183.322 4.58524 180.859 7.04806L17.2757 170.617L2.80708 245.476C1.46343 252.428 7.57159 258.536 14.5234 257.192L89.3694 242.723L252.953 79.1154C255.415 76.6525 257.234 73.6968 258.371 70.5532C259.507 67.4095 260 64.075 260 60.7019C260 53.8817 258.03 46.8337 254.659 39.8996C251.213 32.9655 246.325 26.1069 240.111 19.8935L240.109 19.8921ZM81.945 228.74L40.4235 236.772C40.4235 236.468 40.4989 236.204 40.5374 235.9C40.6129 226.807 33.4149 219.381 24.4737 219.304C24.0948 219.304 23.716 219.38 23.3372 219.418L31.3298 178.081L165.818 43.5731L216.507 94.2698L81.9435 228.741L81.945 228.74ZM244.087 65.3981C243.633 66.6488 243.026 67.596 242.23 68.3908L227.115 83.5097L176.464 32.8515L191.579 17.7327C192.374 16.9364 193.323 16.331 194.573 15.8752C195.824 15.4193 197.414 15.1559 199.309 15.1559C203.134 15.1559 208.136 16.368 213.44 18.9833C218.743 21.5601 224.312 25.5 229.389 30.6151C234.504 35.7302 238.445 41.2997 241.02 46.5658C243.634 51.8703 244.845 56.8715 244.808 60.6989C244.845 62.5549 244.543 64.146 244.087 65.3967V65.3981Z" fill="black"/>
</svg>

<svg width="260" height="260" viewBox="0 0 260 260" fill="none" xmlns="http://www.w3.org/2000/svg"><path d="M240.109 19.892c-6.25-6.215-13.07-11.139-20.003-14.55C213.173 1.968 206.128 0 199.309 0c-3.373 0-6.706.493-9.85 1.63-3.145 1.136-6.137 2.955-8.6 5.418L17.276 170.617 2.807 245.476c-1.344 6.952 4.765 13.06 11.716 11.716l74.846-14.469L252.953 79.115a23.342 23.342 0 0 0 5.418-8.562c1.136-3.144 1.629-6.478 1.629-9.851 0-6.82-1.97-13.868-5.341-20.802-3.446-6.934-8.334-13.793-14.548-20.006l-.002-.002ZM81.945 228.74l-41.521 8.032c0-.304.075-.568.113-.872.076-9.093-7.122-16.519-16.063-16.596-.38 0-.758.076-1.137.114l7.993-41.337L165.818 43.573l50.689 50.697L81.943 228.74l.002-.001ZM244.087 65.398c-.454 1.25-1.061 2.198-1.857 2.993L227.115 83.51l-50.651-50.66 15.115-15.118c.795-.797 1.744-1.402 2.994-1.858 1.251-.456 2.841-.72 4.736-.72 3.825 0 8.827 1.213 14.131 3.828 5.303 2.577 10.872 6.517 15.949 11.632 5.115 5.115 9.056 10.685 11.631 15.95 2.614 5.305 3.825 10.306 3.788 14.134.037 1.856-.265 3.447-.721 4.698v.001Z" fill="#000"/></svg>
